X: 49
T:Great North Run '86
% Nottingham Music Database
S:Robert Whitehead, via PR
M:4/4
L:1/4
K:G
D|"G"GG "D"F/2G/2A/2F/2|"G"G/2A/2B/2c/2 dB|"C"ec/2e/2 "G"dG|\
"A7"A/2B/2A/2G/2 "D7"ED|
"G"GG "D"F/2G/2A/2F/2|"G"G/2A/2B/2c/2 dB|"C"ec/2e/2 "G"d/2B/2G/2B/2|\
"D7"AF "G"G::
f|"Em"ge/2g/2 "Bm"fd|"C"ec/2e/2 "G"dB|"Am"ec/2e/2 "G"dG|"D7"A/2B/2A/2G/2 ED|
"G"GG "D"F/2G/2A/2F/2|"G"G/2A/2B/2c/2 dB|"C"ec/2e/2 "G"d/2B/2G/2B/2|\
"D7"AF "G"G:|<end>
<start>
